logos/ember.svg

<?xml version="1.0" encoding="UTF-8" standalone="no"?>
<svg width="512px" height="213px" viewBox="0 0 512 213" version="1.1" xmlns="http://www.w3.org/2000/svg" xmlns:xlink="http://www.w3.org/1999/xlink" preserveAspectRatio="xMidYMid">
	<g>
		<path d="M511.720614,146.402399 C510.477518,134.204523 501.620462,128.76598 493.30726,128.76598 C489.50028,128.76598 486.470234,129.853689 485.304832,130.319849 L483.67327,131.019091 L482.274788,132.029106 C480.33245,133.505282 476.913938,135.525312 473.883892,136.613021 C473.728506,134.12683 473.806198,130.941397 474.194666,128.299819 L474.27236,127.833658 C476.52547,106.390259 472.019248,93.8816098 460.909082,90.6961772 C459.044438,90.152323 457.102102,89.9192424 455.159764,89.9192424 C448.400432,89.9192424 442.418034,93.1823684 438.53336,95.9793336 C435.270234,91.8615794 429.831692,89.5307752 422.994666,89.5307752 C412.81682,89.5307752 404.659006,94.270077 401.706654,101.884038 C401.39588,102.660972 401.007412,103.826375 400.541252,105.380244 C394.558854,92.1723532 382.360978,87.1222774 371.017732,87.1222774 C360.296032,87.1222774 349.885106,91.317725 346.000432,94.270077 C345.845046,94.425464 345.611964,94.5031576 345.378884,94.736238 C335.20104,101.961731 327.276304,111.051868 321.682374,122.006648 C318.963102,112.528044 312.980706,103.670988 302.259006,96.9893488 L302.103618,96.8339618 C301.792844,96.6785748 301.559764,96.5231878 301.24899,96.367801 C311.73761,77.721367 321.060826,53.0148418 315.466896,29.473719 C309.562192,4.37872656 294.800432,0.649439758 286.48723,0.649439758 C283.068718,0.649439758 279.572512,1.27098756 275.998612,2.51408316 L275.76553,2.59177664 L275.53245,2.6694701 C259.916062,8.80725462 253.079036,18.0527781 251.60286,20.2281954 C250.04899,22.5589996 232.956426,48.5086204 228.838672,86.5007296 C228.372512,90.6961772 227.90635,95.0470118 227.44019,99.3978464 C225.031692,95.9793336 221.069324,92.8715946 214.776152,90.9292576 C212.833816,90.3077098 210.813786,90.0746294 208.793756,90.0746294 C200.16978,90.0746294 193.177367,95.3577858 189.44808,98.8539922 L189.370387,98.7762986 C186.107261,93.9593032 180.901798,91.0846446 175.152481,90.8515642 L173.753998,90.8515642 C164.586168,90.8515642 157.282981,94.8916248 151.922132,99.47554 C148.503619,93.4931424 142.210447,89.7638556 134.829567,89.7638556 C134.208019,89.7638556 133.664165,89.7638556 133.120311,89.841549 L131.877215,89.841549 C121.69937,89.841549 113.696942,94.6585444 110.433816,102.660972 C110.200736,103.28252 109.889962,104.059455 109.579188,105.06947 C101.57676,95.1247054 91.3989148,90.4630968 77.7248632,90.4630968 L76.404074,90.4630968 C67.8577918,90.6184838 46.5697796,94.1923836 33.5172758,123.560517 C31.4972456,128.066739 29.943376,132.650654 28.7779738,137.156875 C25.9033154,135.836086 23.2617372,135.525312 21.3194004,135.525312 C14.4823745,135.525312 9.35460516,139.409986 6.86841396,143.061579 C4.84838362,146.013931 -1.60017481,156.502551 1.58525766,166.758089 C3.29451412,172.274326 7.25688134,176.469774 12.8508115,178.645191 C17.7455005,180.587528 23.9609784,182.452171 28.622587,183.77296 C31.4972456,190.299212 36.6250148,197.835479 45.7151514,204.750198 C52.1637098,209.644888 60.3992182,212.131078 70.1109026,212.131078 C86.4265324,212.131078 102.198308,205.060972 103.907564,204.284038 L104.529112,203.973264 L104.684499,203.817876 C107.792238,207.081002 111.909992,209.411806 117.115455,210.421822 C118.669324,210.732596 120.689355,210.965676 123.020159,210.965676 C131.877215,210.965676 138.015,206.459454 143.686623,197.990866 C148.348232,205.294052 156.816821,209.411806 166.839279,209.411806 L166.916972,209.411806 C167.460827,209.411806 168.004681,209.800274 168.626229,209.800274 C173.909385,209.800274 180.513331,207.93563 186.029567,199.078575 C190.613482,207.314084 199.004378,212.053386 208.949142,212.053386 C217.806198,212.053386 225.497852,208.401792 226.896336,207.70255 L227.207108,207.547164 C230.159462,205.993294 232.645652,204.594812 234.58799,203.507102 C241.191934,207.00331 251.214392,210.887984 263.489962,210.887984 C265.587686,210.887984 267.68541,210.81029 269.783134,210.57721 L270.326988,210.499516 L270.870842,210.421822 C296.898156,205.294052 313.835334,199.078575 323.935486,194.339273 C331.005592,202.264008 342.271146,209.877968 358.353694,211.04337 C360.140644,211.198756 362.005288,211.27645 363.792238,211.27645 C377.000128,211.27645 387.566442,207.547164 395.335788,203.42941 C397.82198,206.070988 400.929718,208.479486 404.96978,210.111048 C407.378278,211.121064 409.864468,211.587224 412.428354,211.587224 C428.588596,211.587224 436.124864,192.319242 438.222586,185.792991 L442.10726,175.382065 C445.525774,179.033658 449.876608,181.98601 455.392844,183.53988 C458.42289,184.394508 461.686016,184.860669 465.026836,184.860669 C482.818642,184.860669 499.911206,172.274326 502.630478,170.176602 C507.525166,166.136541 512.886016,157.82334 511.720614,146.402399" fill="#FFFFFF"></path>
		<path d="M348.727318,151.667375 C348.727318,151.667375 346.474206,143.74264 354.865102,128.437026 C363.178304,113.209105 369.704556,121.522307 369.704556,121.522307 C369.704556,121.522307 376.852356,129.291654 368.69454,140.867982 C360.536726,152.522003 348.727318,151.667375 348.727318,151.667375 M284.6302,162.699848 C275.073904,187.717147 251.843554,177.539302 251.843554,177.539302 C251.843554,177.539302 249.201976,168.604552 256.738244,143.50956 C264.27451,118.492261 281.988622,128.281639 281.988622,128.281639 C281.988622,128.281639 294.186498,137.682549 284.6302,162.699848 M267.304556,57.8913506 C267.304556,57.8913506 281.755542,20.2100152 285.251748,38.5456752 C288.747956,56.8813354 254.951294,111.422155 254.951294,111.422155 C255.262068,99.1465858 267.304556,57.8913506 267.304556,57.8913506 M60.6399126,151.667375 C61.2614604,127.427011 77.1109292,116.860698 82.627166,122.143854 C88.1434028,127.427011 86.1233724,138.847951 75.7124468,145.995751 C65.3792146,153.143551 60.6399126,151.667375 60.6399126,151.667375 M498.520338,147.705008 C497.743402,139.547193 490.362522,142.577238 490.362522,142.577238 C490.362522,142.577238 478.553114,151.745068 468.142188,150.735053 C457.808956,149.647344 461.072082,126.494689 461.072082,126.494689 C461.072082,126.494689 463.325194,105.206677 457.187408,103.419727 C451.049624,101.632777 443.513358,108.935964 443.513358,108.935964 C443.513358,108.935964 434.112446,119.346889 429.683918,132.55478 L428.440824,132.943247 C428.440824,132.943247 429.839306,109.712898 428.207742,104.429742 C426.964648,101.788164 415.776786,102.021244 413.989836,106.682853 C412.125194,111.344461 403.190444,143.898027 402.568896,157.572079 C402.568896,157.572079 385.087864,172.411533 369.78225,174.897724 C354.476634,177.306222 350.825042,167.749924 350.825042,167.749924 C350.825042,167.749924 392.39105,156.173596 390.914874,122.998483 C389.516392,89.8233688 357.428986,102.098938 353.777394,104.818209 C350.281188,107.459788 331.55706,118.725341 326.040824,150.035812 C325.885436,151.12352 325.496968,155.785129 325.496968,155.785129 C325.496968,155.785129 309.41442,166.584522 300.47967,169.459181 C300.47967,169.459181 325.496968,127.349317 294.963434,108.159029 C281.133994,99.845827 270.101522,117.326859 270.101522,117.326859 C270.101522,117.326859 311.43445,71.3323216 302.26662,32.4078908 C297.915786,13.9168437 288.670262,11.8968134 280.12398,14.9268589 C267.226862,20.0546282 262.332174,27.5132018 262.332174,27.5132018 C262.332174,27.5132018 245.628076,51.753566 241.743402,87.8033384 C237.858728,123.853111 232.187106,167.361457 232.187106,167.361457 C232.187106,167.361457 224.26237,175.130804 216.959184,175.519272 C209.655998,175.907739 212.919124,153.765099 212.919124,153.765099 C212.919124,153.765099 218.590748,119.968437 218.20228,114.296813 C217.813812,108.62519 217.425346,105.517451 210.666012,103.49742 C203.984374,101.47739 196.603494,110.023672 196.603494,110.023672 C196.603494,110.023672 177.257819,139.314112 175.626256,143.820334 L174.61624,145.684977 L173.606225,144.441882 C173.606225,144.441882 187.280277,104.507436 174.227773,103.963581 C161.175269,103.342033 152.628987,118.181487 152.628987,118.181487 C152.628987,118.181487 137.789533,143.043399 137.167985,145.840364 L136.15797,144.597269 C136.15797,144.597269 142.295755,115.695296 141.052659,108.547496 C139.809564,101.399697 133.127925,102.875873 133.127925,102.875873 C133.127925,102.875873 124.581642,101.865857 122.328532,107.382094 C120.075421,112.898331 111.917606,149.336571 110.907591,160.912898 C110.907591,160.912898 89.5418852,176.218513 75.4793664,176.3739 C61.4168474,176.60698 62.8930234,167.43915 62.8930234,167.43915 C62.8930234,167.43915 114.403797,149.802731 100.341278,114.996055 C94.0481068,106.061305 86.6672268,103.26434 76.3339946,103.419727 C65.9230688,103.652807 53.7251934,109.945979 45.334298,128.670106 C41.3719308,137.604856 39.7403678,146.073445 39.7403678,152.522003 L39.7403678,152.522003 C39.7403678,152.522003 30.106377,154.386646 25.211688,150.268892 C20.316999,146.228832 17.520034,150.268892 17.520034,150.268892 C17.520034,150.268892 8.97375174,162.466768 17.2869536,165.729894 C25.6001554,168.99302 38.4972722,172.023065 38.4972722,172.023065 L38.4972722,172.023065 C39.6626744,177.306222 43.1588808,185.930197 53.336726,193.621851 C68.564647,205.19818 97.9327806,191.834901 97.9327806,191.834901 L109.975269,184.687102 C109.975269,184.687102 110.363737,195.486495 119.143099,197.118058 C127.922462,198.749621 131.574055,196.962671 146.801976,159.980577 C155.736726,141.023369 156.358274,142.033384 156.358274,142.033384 L157.368289,141.800303 C157.368289,141.800303 150.45357,178.005463 153.095148,187.794841 C155.736726,197.584219 167.313054,196.574203 167.313054,196.574203 C167.313054,196.574203 173.606225,198.827314 178.733995,180.880121 C183.861764,162.932929 193.573448,144.208801 193.573448,144.208801 L194.816544,144.208801 C194.816544,144.208801 190.543403,180.258574 197.069655,192.067982 C203.595906,203.87739 220.45539,195.564188 220.45539,195.564188 C220.45539,195.564188 232.264798,189.34871 234.129442,187.484067 C234.129442,187.484067 248.114268,199.293475 267.926104,197.118058 C312.133692,188.416388 327.827772,176.60698 327.827772,176.60698 C327.827772,176.60698 335.441734,195.797269 358.905162,197.584219 C385.787106,199.604249 400.471172,182.667071 400.471172,182.667071 C400.471172,182.667071 400.238092,193.621851 409.639002,197.506525 C419.039912,201.391198 425.333084,180.880121 425.333084,180.880121 L441.027166,138.847951 L442.425648,138.847951 C442.425648,138.847951 443.202584,165.729894 458.741278,170.236115 C474.357666,174.664643 494.480276,159.125948 494.480276,159.125948 C494.480276,159.125948 499.374966,155.862822 498.520338,147.705008" fill="#E24B31"></path>
	</g>
</svg>

<svg preserveAspectRatio="xMidYMid" viewBox="0 0 512 213" xmlns="http://www.w3.org/2000/svg">
  <path fill="#FFF" d="M511.72 146.402c-1.242-12.197-10.1-17.636-18.413-17.636-3.807 0-6.837 1.088-8.002 1.554l-1.632.7-1.398 1.01c-1.943 1.475-5.361 3.495-8.391 4.583-.155-2.486-.078-5.672.31-8.313l.078-.466c2.253-21.444-2.253-33.952-13.363-37.138-1.865-.544-3.807-.777-5.75-.777-6.759 0-12.741 3.263-16.626 6.06-3.263-4.117-8.701-6.448-15.538-6.448-10.178 0-18.336 4.74-21.288 12.353-.311.777-.7 1.942-1.166 3.496-5.982-13.208-18.18-18.258-29.523-18.258-10.722 0-21.133 4.196-25.018 7.148-.155.155-.388.233-.621.466-10.178 7.226-18.103 16.316-23.697 27.27-2.719-9.478-8.701-18.335-19.423-25.017l-.155-.155c-.311-.155-.544-.31-.855-.466 10.489-18.647 19.812-43.353 14.218-66.894C309.562 4.379 294.8.649 286.487.649c-3.418 0-6.914.622-10.488 1.865l-.233.078-.234.077c-15.616 6.138-22.453 15.384-23.93 17.56-1.553 2.33-18.646 28.28-22.763 66.272-.466 4.195-.933 8.546-1.399 12.897-2.408-3.419-6.37-6.526-12.664-8.469-1.942-.621-3.962-.854-5.982-.854-8.624 0-15.617 5.283-19.346 8.779l-.078-.078c-3.263-4.817-8.468-7.691-14.218-7.924h-1.398c-9.168 0-16.471 4.04-21.832 8.624-3.418-5.983-9.712-9.712-17.092-9.712-.622 0-1.166 0-1.71.078h-1.243c-10.178 0-18.18 4.817-21.443 12.819-.233.622-.544 1.398-.855 2.408-8.002-9.944-18.18-14.606-31.854-14.606h-1.32c-8.547.155-29.835 3.73-42.888 33.098-2.02 4.506-3.574 9.09-4.739 13.596a17.775 17.775 0 0 0-7.459-1.632c-6.837 0-11.964 3.885-14.45 7.537-2.02 2.952-8.47 13.44-5.284 23.696 1.71 5.516 5.672 9.712 11.266 11.887 4.895 1.943 11.11 3.807 15.772 5.128 2.874 6.526 8.002 14.062 17.092 20.977 6.449 4.895 14.684 7.381 24.396 7.381 16.316 0 32.087-7.07 33.797-7.847l.621-.31.155-.156c3.108 3.263 7.226 5.594 12.431 6.604 1.554.31 3.574.544 5.905.544 8.857 0 14.995-4.507 20.667-12.975 4.661 7.303 13.13 11.42 23.152 11.42h.078c.544 0 1.088.39 1.71.39 5.282 0 11.886-1.865 17.403-10.722 4.583 8.235 12.974 12.974 22.92 12.974 8.856 0 16.548-3.651 17.946-4.35l.311-.156c2.952-1.554 5.439-2.952 7.381-4.04 6.604 3.496 16.626 7.381 28.902 7.381 2.098 0 4.195-.078 6.293-.31l.544-.078.544-.078c26.027-5.128 42.964-11.343 53.064-16.083 7.07 7.925 18.336 15.539 34.419 16.704 1.787.156 3.651.233 5.438.233 13.208 0 23.774-3.729 31.544-7.847 2.486 2.642 5.594 5.05 9.634 6.682 2.408 1.01 4.894 1.476 7.458 1.476 16.16 0 23.697-19.268 25.795-25.794l3.884-10.41c3.419 3.65 7.77 6.603 13.286 8.157 3.03.855 6.293 1.32 9.634 1.32 17.792 0 34.884-12.586 37.603-14.683 4.895-4.04 10.256-12.354 9.09-23.775"/>
  <path fill="#E24B31" d="M348.727 151.667s-2.253-7.924 6.138-23.23c8.313-15.228 14.84-6.915 14.84-6.915s7.147 7.77-1.01 19.346c-8.158 11.654-19.968 10.8-19.968 10.8M284.63 162.7c-9.556 25.017-32.786 14.84-32.786 14.84s-2.642-8.935 4.894-34.03c7.537-25.018 25.25-15.228 25.25-15.228s12.198 9.4 2.642 34.418M267.305 57.89s14.45-37.681 17.947-19.345c3.496 18.335-30.3 72.876-30.3 72.876.31-12.275 12.353-53.53 12.353-53.53M60.64 151.666c.621-24.24 16.47-34.806 21.987-29.523 5.516 5.283 3.496 16.704-6.915 23.852-10.333 7.148-15.072 5.671-15.072 5.671m437.88-3.962c-.777-8.158-8.157-5.128-8.157-5.128s-11.81 9.168-22.22 8.158c-10.334-1.088-7.07-24.24-7.07-24.24s2.252-21.288-3.886-23.075c-6.137-1.787-13.674 5.516-13.674 5.516s-9.4 10.41-13.83 23.619l-1.242.388s1.398-23.23-.233-28.513c-1.243-2.642-12.431-2.409-14.218 2.253-1.865 4.661-10.8 37.215-11.421 50.89 0 0-17.481 14.839-32.787 17.325-15.305 2.408-18.957-7.148-18.957-7.148s41.566-11.576 40.09-44.752c-1.399-33.175-33.486-20.9-37.138-18.18-3.496 2.642-22.22 13.907-27.736 45.218-.156 1.088-.544 5.75-.544 5.75s-16.083 10.799-25.017 13.673c0 0 25.017-42.11-5.517-61.3-13.829-8.313-24.861 9.168-24.861 9.168s41.332-45.995 32.165-84.92c-4.351-18.49-13.597-20.51-22.143-17.48-12.897 5.128-17.792 12.586-17.792 12.586s-16.704 24.24-20.589 60.29c-3.884 36.05-9.556 79.558-9.556 79.558s-7.925 7.77-15.228 8.158c-7.303.389-4.04-21.754-4.04-21.754s5.672-33.797 5.283-39.468c-.388-5.672-.777-8.78-7.536-10.8-6.682-2.02-14.063 6.527-14.063 6.527s-19.345 29.29-20.977 33.796l-1.01 1.865-1.01-1.243s13.674-39.935.622-40.478c-13.053-.622-21.599 14.217-21.599 14.217s-14.84 24.862-15.461 27.66l-1.01-1.244s6.138-28.902 4.895-36.05c-1.243-7.147-7.925-5.671-7.925-5.671s-8.546-1.01-10.8 4.506c-2.253 5.516-10.41 41.955-11.42 53.53 0 0-21.366 15.307-35.429 15.462-14.062.233-12.586-8.935-12.586-8.935s51.51-17.636 37.448-52.443c-6.293-8.935-13.674-11.732-24.007-11.576-10.41.233-22.609 6.526-31 25.25-3.962 8.935-5.594 17.403-5.594 23.852 0 0-9.634 1.865-14.528-2.253-4.895-4.04-7.692 0-7.692 0s-8.546 12.198-.233 15.46c8.313 3.264 21.21 6.294 21.21 6.294 1.166 5.283 4.662 13.907 14.84 21.599 15.228 11.576 44.596-1.787 44.596-1.787l12.042-7.148s.389 10.8 9.168 12.431c8.78 1.632 12.431-.155 27.659-37.137 8.935-18.958 9.556-17.948 9.556-17.948l1.01-.233s-6.914 36.205-4.273 45.995c2.642 9.79 14.218 8.78 14.218 8.78s6.293 2.252 11.421-15.695c5.128-17.947 14.84-36.671 14.84-36.671h1.243s-4.274 36.05 2.253 47.859c6.526 11.81 23.385 3.496 23.385 3.496s11.81-6.215 13.674-8.08c0 0 13.985 11.81 33.797 9.634 44.208-8.702 59.902-20.511 59.902-20.511s7.614 19.19 31.077 20.977c26.882 2.02 41.566-14.917 41.566-14.917s-.233 10.955 9.168 14.84c9.4 3.884 15.694-16.627 15.694-16.627l15.694-42.032h1.399s.777 26.882 16.315 31.388c15.617 4.429 35.74-11.11 35.74-11.11s4.894-3.263 4.04-11.421"/>
</svg>
